X:2578
T:Cantar de Trabayu (CT 212)
R:Trabayu
C:Tradicional
S:Música Tradicional Asturiana, (C) Tello & Tito. Asturies, 2001.
S:http://pagina.de/MusTradAst <telloytito@asturies.org>
N:Cantan esta melodía los campesinos de La Pola Siero mientras labran la tierra.
O:La Pola Siero (Siero)
A:Asturies
Z:Cancioneru de Torner 212
M:3/4
L:1/8
Q:1/4=63
W:Coloradina,
W:coloradina y guapina,
W:arrímate a la fesoria,
W:a la fesoria
W:que tos padres ya non pueden
W:mantenete de señora.
K:G
|z3 G FA|[M:4/4] (3c-c{dc}B (3B-B{cB}A BB (3ABA|
(G3/2A/4G/4) F2 (3Acc B/>{cB}A G/>A/|[M:3/4] GG-G4-|
G2 zG FA|[M:4/4] (3c-c{dc}B (3B-B{cB}A BB (3ABA|
(G3/2A/4G/4) F2 (3Acc B/>{cB}A G/>A/|[M:3/4] GG-G4||


